X: 2130
T: Atlantic Wave, The
R: reel
M: 4/4
K: Gmajor
|:(3DEF|G3 B d3B|cBcd efge|d2 BG dGBG|FDAD BDAD|
G3 B d3 B|cBcd efge|d2 (3gfe dcBA|(3GAG FA G2:|
|:(3Bcd|gfgd ed^ce|dfab adfa|bagf gdBG|FDAD BDAD|
G3 B d3 B|cBcd efge|d2(3gfe dcBA|(3GAG FA G2:|

